_includes/icons/ios-doctors-bag.svg

<svg fill="#666" height="50" viewBox="0 0 50 50" width="50" xmlns="http://www.w3.org/2000/svg"><path d="m19 5c-1.644531 0-3 1.355469-3 3v3h-13c-1.644531 0-3 1.355469-3 3v5.6875c-.0585938.195313-.0585938.398438 0 .59375v21.71875c0 1.644531 1.355469 3 3 3h44c1.644531 0 3-1.355469 3-3v-21.8125c.027344-.132812.027344-.273437 0-.40625v-5.78125c0-1.644531-1.355469-3-3-3h-13v-3c0-1.644531-1.355469-3-3-3zm0 2h12c.5625 0 1 .4375 1 1v3h-14v-3c0-.5625.4375-1 1-1zm-16 6h44c.5625 0 1 .4375 1 1v5h-4c0-1.09375-.90625-2-2-2h-4c-1.09375 0-2 .90625-2 2h-22c0-1.09375-.90625-2-2-2h-4c-1.09375 0-2 .90625-2 2h-4v-5c0-.5625.4375-1 1-1zm5 6h4v.53125c-.132812.277344-.132812.597656 0 .875v.59375h-4v-.8125c.027344-.132812.027344-.273437 0-.40625zm30 0h4v.53125c-.132812.277344-.132812.597656 0 .875v.59375h-4v-.8125c.027344-.132812.027344-.273437 0-.40625zm-36 2h4c0 1.09375.90625 2 2 2h4c1.09375 0 2-.90625 2-2h22c0 1.09375.90625 2 2 2h4c1.09375 0 2-.90625 2-2h4v21c0 .5625-.4375 1-1 1h-44c-.5625 0-1-.4375-1-1zm21 4v4h-4v4h4v4h4v-4h4v-4h-4v-4z"/></svg>

<svg xmlns="http://www.w3.org/2000/svg" viewBox="0 0 50 50" width="50" height="50" fill="#666"><path d="M 19 5 C 17.355469 5 16 6.355469 16 8 L 16 11 L 3 11 C 1.355469 11 0 12.355469 0 14 L 0 19.6875 C -0.0585938 19.882813 -0.0585938 20.085938 0 20.28125 L 0 42 C 0 43.644531 1.355469 45 3 45 L 47 45 C 48.644531 45 50 43.644531 50 42 L 50 20.1875 C 50.027344 20.054688 50.027344 19.914063 50 19.78125 L 50 14 C 50 12.355469 48.644531 11 47 11 L 34 11 L 34 8 C 34 6.355469 32.644531 5 31 5 Z M 19 7 L 31 7 C 31.5625 7 32 7.4375 32 8 L 32 11 L 18 11 L 18 8 C 18 7.4375 18.4375 7 19 7 Z M 3 13 L 47 13 C 47.5625 13 48 13.4375 48 14 L 48 19 L 44 19 C 44 17.90625 43.09375 17 42 17 L 38 17 C 36.90625 17 36 17.90625 36 19 L 14 19 C 14 17.90625 13.09375 17 12 17 L 8 17 C 6.90625 17 6 17.90625 6 19 L 2 19 L 2 14 C 2 13.4375 2.4375 13 3 13 Z M 8 19 L 12 19 L 12 19.53125 C 11.867188 19.808594 11.867188 20.128906 12 20.40625 L 12 21 L 8 21 L 8 20.1875 C 8.027344 20.054688 8.027344 19.914063 8 19.78125 Z M 38 19 L 42 19 L 42 19.53125 C 41.867188 19.808594 41.867188 20.128906 42 20.40625 L 42 21 L 38 21 L 38 20.1875 C 38.027344 20.054688 38.027344 19.914063 38 19.78125 Z M 2 21 L 6 21 C 6 22.09375 6.90625 23 8 23 L 12 23 C 13.09375 23 14 22.09375 14 21 L 36 21 C 36 22.09375 36.90625 23 38 23 L 42 23 C 43.09375 23 44 22.09375 44 21 L 48 21 L 48 42 C 48 42.5625 47.5625 43 47 43 L 3 43 C 2.4375 43 2 42.5625 2 42 Z M 23 25 L 23 29 L 19 29 L 19 33 L 23 33 L 23 37 L 27 37 L 27 33 L 31 33 L 31 29 L 27 29 L 27 25 Z"/></svg>
